X:04
T:Italian. 2voices. Dix.04
T:Go Tell Aunt Rhody,aka. Dix.04
T:Rousseaux’s Dream,aka. Dix.04
M:2/4
L:1/8
Q:1/4=120
S:Anon. MS dated 1811, from Dixon collection, Holton le Moor, Lincs.
R:quick step
N:Repeat marks added at start
O:England;Lincolnshire;Holton le Moor
Z:vmp.R.Greig 2010 <http://www.village-music-project.org.uk>
K:F
[V:1]|:A2BG|F2F2|GFGB|(A2G2)|A2BA|F2F2|GFGA|F4:|
[V:2]|:F,A,CA,|D,F,A,A,,|B,,D,G,B,,|C,E,G,C|F,A,CE,|D,F,A,A,,|B,,D,C,F,,|F,,A,,C,A,:|
[V:1]|:[AF][GE][AF][BG]|c2c2|dcdc|c2c2|AGAB|c2c2|dcdB|c4|
[V:2]|:F,CA,C|F,CA,C|F,DCD|F,CA,C|F,CA,C|F,CA,C|F,DB,D|F,CA,C|
[V:1]A2BG|F2F2|GFGB|(A2G2)|A2BG|F2F2|GFGA|F4:|
[V:2]F,A,CA,|D,F,A,A,,|B,,D,G,D,|C,E,G,C|F,A,CE,|D,F,A,A,,|B,D,C,C,,|F,,4:|

